icon-themes/breeze_svg/cmd/lc_dataranges.svg

<svg viewBox="0 0 24 24" xmlns="http://www.w3.org/2000/svg"><path d="m13 4c-.684804-.0184653-1.327875.1347497-1.970703.2871094-1.0505233.3213512-1.8269495.85771-2.607422 1.4238281-.6918929.5679208-1.1189836 1.221922-1.5605469 1.9414063-.4146024.7099431-.6197323 1.6097974-.78125 2.3398437-.0003892.0026752-.0015668.0051362-.0019531.0078125-.049921.331036-.0760296.665227-.078125 1h1c.00196-.335258.0320098-.669762.0898438-1v-.0019531c.1030824-.7292222.4083855-1.3538814.7109374-1.9824219.0077601-.01305.0155756-.0260705.0234376-.0390625.3409689-.5838866.7774371-1.1012092 1.2851562-1.5351563.2568438-.2338225.574778-.4203547.8203125-.5898437.3073195-.1884224.6719655-.3320029.9570315-.4628906.327192-.1277878.698272-.2009953.992187-.2773438.02145-.00533.042943-.010535.064453-.015625.343812-.0616483.696939-.0953479 1.056641-.0957031v5 1h6c-.000317.207791-.013616.414507-.035156.619141-.0082.06133-.017284.12254-.027344.183593-.01938.141664-.039059.282564-.068359.421875-.498016 1.871009-1.431802 2.970593-2.869141 3.962891v1.126953c.71135-.322827 1.157594-.696047 1.734375-1.169922.300648-.276531.570907-.57946.816406-.90039.789722-.998815 1.172235-2.16653 1.394531-3.382813.0038-.03037.004413-.061337.007813-.091797.029788-.255445.045398-.512354.046875-.769531-.000303-.237455-.012689-.474739-.037109-.710938v-.003906c-.02322-.228662-.05687-.4541641-.101563-.675781l-.003906-.0195312c-.61868-2.7303952-2.553284-4.5727354-5.154297-5.3730469-.561225-.1578841-1.143991-.1830985-1.703125-.2167969zm-9 8v1 3 1 3 1h1 10v-1-7-1h-10zm1 1h4v3h-4zm5 0h4v3h-4zm-5 4h4v3h-4zm5 0h4v3h-4z" fill="#4d4d4d"/></svg>

<svg xmlns="http://www.w3.org/2000/svg" viewBox="0 0 24 24">
 <path 
     style="fill:#4d4d4d" 
     d="M 13 4 C 12.315196 3.9815347 11.672125 4.1347497 11.029297 4.2871094 C 9.9787737 4.6084606 9.2023475 5.1448194 8.421875 5.7109375 C 7.7299821 6.2788583 7.3028914 6.9328595 6.8613281 7.6523438 C 6.4467257 8.3622869 6.2415958 9.2621412 6.0800781 9.9921875 C 6.0796889 9.9948627 6.0785113 9.9973237 6.078125 10 C 6.028204 10.331036 6.0020954 10.665227 6 11 L 7 11 C 7.00196 10.664742 7.0320098 10.330238 7.0898438 10 L 7.0898438 9.9980469 C 7.1929262 9.2688247 7.4982293 8.6441655 7.8007812 8.015625 C 7.8085413 8.002575 7.8163568 7.9895545 7.8242188 7.9765625 C 8.1651877 7.3926759 8.6016559 6.8753533 9.109375 6.4414062 C 9.3662188 6.2075837 9.684153 6.0210515 9.9296875 5.8515625 C 10.237007 5.6631401 10.601653 5.5195596 10.886719 5.3886719 C 11.213911 5.2608841 11.584991 5.1876766 11.878906 5.1113281 C 11.900356 5.1059981 11.921849 5.1007931 11.943359 5.0957031 C 12.287171 5.0340548 12.640298 5.0003552 13 5 L 13 10 L 13 11 L 19 11 C 18.999683 11.207791 18.986384 11.414507 18.964844 11.619141 C 18.956644 11.680471 18.94756 11.741681 18.9375 11.802734 C 18.91812 11.944398 18.898441 12.085298 18.869141 12.224609 C 18.371125 14.095618 17.437339 15.195202 16 16.1875 L 16 17.314453 C 16.71135 16.991626 17.157594 16.618406 17.734375 16.144531 C 18.035023 15.868 18.305282 15.565071 18.550781 15.244141 C 19.340503 14.245326 19.723016 13.077611 19.945312 11.861328 C 19.949112 11.830958 19.949725 11.799991 19.953125 11.769531 C 19.982913 11.514086 19.998523 11.257177 20 11 C 19.999697 10.762545 19.987311 10.525261 19.962891 10.289062 L 19.962891 10.285156 C 19.939671 10.056494 19.906021 9.8309919 19.861328 9.609375 L 19.857422 9.5898438 C 19.238742 6.8594486 17.304138 5.0171084 14.703125 4.2167969 C 14.1419 4.0589128 13.559134 4.0336984 13 4 z M 4 12 L 4 13 L 4 16 L 4 17 L 4 20 L 4 21 L 5 21 L 15 21 L 15 20 L 15 13 L 15 12 L 5 12 L 4 12 z M 5 13 L 9 13 L 9 16 L 5 16 L 5 13 z M 10 13 L 14 13 L 14 16 L 10 16 L 10 13 z M 5 17 L 9 17 L 9 20 L 5 20 L 5 17 z M 10 17 L 14 17 L 14 20 L 10 20 L 10 17 z "
     />
 </svg>
